X:38
T: Rakish Paddy/ Dublin Reel
T: Rakish Paddy
M:4/4
L:1/8
K:Dmix
AB |:"Am"c2AB c2 AB |"C"cAAG E[DG] [D2G2] |"D"Add^c d2fe |dcAG FGAB |
"Am"c2AB c2 AB |"C"cAAG E[DG] [D2G2]|"D"DEFG ABcA |dcAG FA D2 ::
"C"eg g2 ag g2 |eg g2 ed^cd |"Am"ea a2 ba a2 |ea a2 egdg |
"C"eg g2 ag g2 |f3e defg |"D"afge fde^c |dcAG FD D2 :|
T:The Dublin Reel
M:C|
L:1/8
K:D
||:dF F2 dFeF |dF F2 AFEF |[1dF ~F2 dfed |cABG AFEF :|[2d2 dc dfed |cABG AFEf |:
eA A2 eAfA |eA A2 BAFA |[1eA A2 egfe |dBcA BAFA :|[2d2 dc dfed |cABG AFEF|:
d2 dc dAFA |dcdA FDFA |d2 dc dfed |cABG AFEF :|

